X: 1
T: Indian Point
R: jig
C: Rick Mohr  4/89
Z: Translated to abc by Debbie Knight
M: 6/8
K: Em
|:"Em"B,EF G2A | BAG FED | "C"CEF G2A | BAG BAG | 
| "D"FED A,2D | FEF AGF |1 "Em"EFG BAG | "D" F3 FED :| \
[2 "Em"GFE "D"FED | "Em"E3 E2 || 
|:"Em"Bef gfe | "C"cef gfe | "D"dfg agf | "Em"gfe "D"fed | 
| "Em"Bef gfe | "C"ceg "Am"a2a | "Em"bag "B7"fgf | "Em"e3 e3 :|
